polaris-icons/icons/newicons/NotificationMajor.svg

<svg width="20" height="20" viewBox="0 0 20 20" fill="none" xmlns="http://www.w3.org/2000/svg">
<path fill-rule="evenodd" clip-rule="evenodd" d="M14.5004 8.00969V7.5C14.5004 5.01472 12.4857 3 10.0004 3C7.51511 3 5.5004 5.01472 5.5004 7.5V8.00969C5.5004 9.02609 4.96595 9.96761 4.09325 10.4886L3.90251 10.6025C2.37212 11.5162 2.73618 13.829 4.47325 14.2283L5.71517 14.5138C6.22368 14.6307 6.73638 14.7266 7.25197 14.8015C7.25278 16.292 8.4613 17.5 9.95197 17.5C11.438 17.5 12.6437 16.2994 12.6519 14.8153C13.2002 14.7386 13.7453 14.638 14.2856 14.5138L15.5275 14.2283C17.2646 13.829 17.6287 11.5162 16.0983 10.6025L15.9075 10.4886C15.0348 9.96761 14.5004 9.02609 14.5004 8.00969ZM7.00039 8.00969C7.00039 9.31812 6.41753 10.5449 5.43307 11.3707L5.40013 11.398C5.29352 11.4857 5.18232 11.5687 5.06673 11.6467C4.99999 11.6917 4.93178 11.735 4.86216 11.7766L4.67142 11.8904C4.30168 12.1112 4.38964 12.6699 4.80931 12.7664L6.05124 13.0519C7.34652 13.3497 8.67132 13.5 10.0004 13.5C11.3295 13.5 12.6543 13.3497 13.9496 13.0519L15.1915 12.7664C15.6111 12.6699 15.6991 12.1112 15.3294 11.8904L15.1386 11.7766C15.069 11.735 15.0008 11.6917 14.9341 11.6467C14.8185 11.5687 14.7073 11.4857 14.6007 11.398L14.5677 11.3707C13.5833 10.5449 13.0004 9.31812 13.0004 8.00969V7.5C13.0004 5.84315 11.6572 4.5 10.0004 4.5C8.34354 4.5 7.00039 5.84315 7.00039 7.5V8.00969ZM11.1406 14.966C10.7612 14.9886 10.3809 15 10.0004 15C9.58718 15 9.17434 14.9866 8.76253 14.9599C8.84071 15.547 9.34344 16 9.95197 16C10.5584 16 11.0597 15.5502 11.1406 14.966Z" fill="black"/>
</svg>

<svg viewBox="0 0 20 20" fill="none" xmlns="http://www.w3.org/2000/svg"><path fill-rule="evenodd" clip-rule="evenodd" d="M14.5 8.01v-.51a4.5 4.5 0 1 0-9 0v.51a2.887 2.887 0 0 1-1.407 2.479l-.19.113c-1.53.914-1.167 3.227.57 3.626l1.242.286c.509.117 1.021.213 1.537.288a2.7 2.7 0 0 0 5.4.013 19.11 19.11 0 0 0 1.634-.301l1.242-.286c1.737-.399 2.1-2.712.57-3.626l-.19-.113a2.887 2.887 0 0 1-1.408-2.48Zm-7.5 0a4.387 4.387 0 0 1-1.567 3.36l-.033.028a4.39 4.39 0 0 1-.538.379l-.19.113c-.37.221-.282.78.137.876l1.242.286a17.625 17.625 0 0 0 7.899 0l1.242-.286a.478.478 0 0 0 .137-.876l-.19-.113a4.422 4.422 0 0 1-.538-.379l-.033-.027a4.388 4.388 0 0 1-1.568-3.361v-.51a3 3 0 0 0-6 0v.51Zm4.14 6.956a19.177 19.177 0 0 1-2.377-.006 1.2 1.2 0 0 0 2.378.006Z" fill="#5C5F62"/></svg>
